images/icons/link-gray-5.svg

<svg xmlns="http://www.w3.org/2000/svg" viewBox="0 0 20 20">
	<title>Link Icon</title>
	<path d="M18.2 1.8c-2.3-2.4-6.1-2.4-8.5 0L7.2 4.3l1.4 1.4 2.6-2.5c1.5-1.6 4.1-1.6 5.6 0 1.6 1.5 1.6 4.1 0 5.6l-2.5 2.6 1.4 1.4 2.5-2.5c2.4-2.4 2.4-6.2 0-8.5zm-9.4 15C8.1 17.6 7.1 18 6 18c-1.1 0-2.1-.4-2.8-1.2-1.6-1.5-1.6-4.1 0-5.6l2.5-2.6-1.4-1.4-2.5 2.5c-2.4 2.4-2.4 6.2 0 8.5C2.9 19.4 4.5 20 6 20c1.6 0 3.1-.6 4.3-1.8l2.5-2.5-1.4-1.4-2.6 2.5zm3.5-10.5l1.4 1.4-6 6-1.4-1.4 6-6z" fill="#f2f2f2"/>
</svg>

<svg xmlns="http://www.w3.org/2000/svg" width="20" height="20" viewBox="0 0 20 20">
	<title>Link Icon</title>
	<path d="M18.2 1.8C15.9-0.6 12.1-0.6 9.7 1.8L7.2 4.3 8.6 5.7 11.2 3.2C12.7 1.6 15.3 1.6 16.8 3.2 18.4 4.7 18.4 7.3 16.8 8.8L14.3 11.4 15.7 12.8 18.2 10.3C20.6 7.9 20.6 4.1 18.2 1.8L18.2 1.8ZM8.8 16.8C8.1 17.6 7.1 18 6 18 4.9 18 3.9 17.6 3.2 16.8 1.6 15.3 1.6 12.7 3.2 11.2L5.7 8.6 4.3 7.2 1.8 9.7C-0.6 12.1-0.6 15.9 1.8 18.2 2.9 19.4 4.5 20 6 20 7.6 20 9.1 19.4 10.3 18.2L12.8 15.7 11.4 14.3 8.8 16.8ZM12.3 6.3L13.7 7.7 7.7 13.7 6.3 12.3 12.3 6.3Z" fill="#f2f2f2"/>
</svg>
